src/icons/tiktok.svg

<svg width="28" height="29" viewBox="0 0 28 29" xmlns="http://www.w3.org/2000/svg">
  <path d="M19.3668 7.29C18.5695 6.37945 18.1301 5.2103 18.1302 4H14.5252V18.4667C14.498 19.2497 14.1676 19.9916 13.6039 20.5357C13.0401 21.0799 12.287 21.3838 11.5035 21.3833C9.84685 21.3833 8.47018 20.03 8.47018 18.35C8.47018 16.3433 10.4068 14.8383 12.4018 15.4567V11.77C8.37685 11.2333 4.85352 14.36 4.85352 18.35C4.85352 22.235 8.07352 25 11.4918 25C15.1552 25 18.1302 22.025 18.1302 18.35V11.0117C19.592 12.0615 21.3471 12.6248 23.1468 12.6217V9.01667C23.1468 9.01667 20.9535 9.12167 19.3668 7.29Z" />
</svg>

<svg xmlns="http://www.w3.org/2000/svg" width="28" height="29">
  <path d="M19.367 7.29A4.993 4.993 0 0 1 18.13 4h-3.605v14.467a3.022 3.022 0 0 1-3.021 2.916A3.042 3.042 0 0 1 8.47 18.35c0-2.007 1.937-3.512 3.932-2.893V11.77c-4.025-.537-7.548 2.59-7.548 6.58 0 3.885 3.22 6.65 6.638 6.65 3.663 0 6.638-2.975 6.638-6.65v-7.338a8.575 8.575 0 0 0 5.017 1.61V9.017s-2.194.105-3.78-1.727Z"/>
</svg>
